pics/icons/22x22/actions/log-out.svg

<?xml version="1.0" encoding="UTF-8" standalone="no"?>
<!-- Created with Inkscape (http://www.inkscape.org/) -->
<svg
   xmlns:dc="http://purl.org/dc/elements/1.1/"
   xmlns:cc="http://creativecommons.org/ns#"
   xmlns:rdf="http://www.w3.org/1999/02/22-rdf-syntax-ns#"
   xmlns:svg="http://www.w3.org/2000/svg"
   xmlns="http://www.w3.org/2000/svg"
   xmlns:xlink="http://www.w3.org/1999/xlink"
   xmlns:sodipodi="http://sodipodi.sourceforge.net/DTD/sodipodi-0.dtd"
   xmlns:inkscape="http://www.inkscape.org/namespaces/inkscape"
   inkscape:export-ydpi="90.000000"
   inkscape:export-xdpi="90.000000"
   inkscape:export-filename="/home/jimmac/Desktop/wi-fi.png"
   width="22"
   height="22"
   id="svg11300"
   sodipodi:version="0.32"
   inkscape:version="0.46"
   sodipodi:docbase="/home/jimmac/src/cvs/tango-icon-theme/22x22/actions"
   sodipodi:docname="system-log-out.svg"
   inkscape:output_extension="org.inkscape.output.svg.inkscape"
   version="1.0"
   sodipodi:modified="true">
  <defs
     id="defs3">
    <inkscape:perspective
       sodipodi:type="inkscape:persp3d"
       inkscape:vp_x="0 : 11 : 1"
       inkscape:vp_y="0 : 1000 : 0"
       inkscape:vp_z="22 : 11 : 1"
       inkscape:persp3d-origin="11 : 7.3333333 : 1"
       id="perspective66" />
    <linearGradient
       inkscape:collect="always"
       id="linearGradient6467">
      <stop
         style="stop-color:#babdb6;stop-opacity:1;"
         offset="0"
         id="stop6469" />
      <stop
         style="stop-color:#babdb6;stop-opacity:0;"
         offset="1"
         id="stop6471" />
    </linearGradient>
    <linearGradient
       inkscape:collect="always"
       id="linearGradient6365">
      <stop
         style="stop-color:#ffffff;stop-opacity:1;"
         offset="0"
         id="stop6367" />
      <stop
         style="stop-color:#ffffff;stop-opacity:0;"
         offset="1"
         id="stop6369" />
    </linearGradient>
    <linearGradient
       id="linearGradient6347">
      <stop
         style="stop-color:#4e9a06;stop-opacity:1;"
         offset="0"
         id="stop6349" />
      <stop
         style="stop-color:#2d5903;stop-opacity:1;"
         offset="1"
         id="stop6351" />
    </linearGradient>
    <linearGradient
       id="linearGradient9896">
      <stop
         id="stop9898"
         offset="0"
         style="stop-color:#cecece;stop-opacity:1;" />
      <stop
         id="stop9900"
         offset="1.0000000"
         style="stop-color:#9e9e9e;stop-opacity:1.0000000;" />
    </linearGradient>
    <linearGradient
       id="linearGradient9888"
       inkscape:collect="always">
      <stop
         id="stop9890"
         offset="0"
         style="stop-color:#ffffff;stop-opacity:1;" />
      <stop
         id="stop9892"
         offset="1"
         style="stop-color:#ffffff;stop-opacity:0;" />
    </linearGradient>
    <linearGradient
       id="linearGradient9880"
       inkscape:collect="always">
      <stop
         id="stop9882"
         offset="0"
         style="stop-color:#525252;stop-opacity:1;" />
      <stop
         id="stop9884"
         offset="1"
         style="stop-color:#525252;stop-opacity:0;" />
    </linearGradient>
    <linearGradient
       id="linearGradient9868">
      <stop
         style="stop-color:#4e4e4e;stop-opacity:1.0000000;"
         offset="0.0000000"
         id="stop9870" />
      <stop
         style="stop-color:#616161;stop-opacity:0.0000000;"
         offset="1.0000000"
         id="stop9872" />
    </linearGradient>
    <linearGradient
       id="linearGradient9854">
      <stop
         id="stop9856"
         offset="0.0000000"
         style="stop-color:#4e4e4e;stop-opacity:1.0000000;" />
      <stop
         id="stop9858"
         offset="1.0000000"
         style="stop-color:#ababab;stop-opacity:1.0000000;" />
    </linearGradient>
    <linearGradient
       id="linearGradient9830">
      <stop
         id="stop9832"
         offset="0.0000000"
         style="stop-color:#505050;stop-opacity:1.0000000;" />
      <stop
         id="stop9834"
         offset="1.0000000"
         style="stop-color:#181818;stop-opacity:1.0000000;" />
    </linearGradient>
    <linearGradient
       inkscape:collect="always"
       id="linearGradient8662">
      <stop
         style="stop-color:#000000;stop-opacity:1;"
         offset="0"
         id="stop8664" />
      <stop
         style="stop-color:#000000;stop-opacity:0;"
         offset="1"
         id="stop8666" />
    </linearGradient>
    <linearGradient
       inkscape:collect="always"
       id="linearGradient8650">
      <stop
         style="stop-color:#ffffff;stop-opacity:1;"
         offset="0"
         id="stop8652" />
      <stop
         style="stop-color:#ffffff;stop-opacity:0;"
         offset="1"
         id="stop8654" />
    </linearGradient>
    <linearGradient
       gradientUnits="userSpaceOnUse"
       y2="27.759069"
       x2="18.031221"
       y1="19.804117"
       x1="46.845825"
       id="linearGradient9864"
       xlink:href="#linearGradient9854"
       inkscape:collect="always"
       gradientTransform="matrix(0.4335432,0,0,0.4476504,-4.0690976,0.6326407)" />
    <radialGradient
       gradientUnits="userSpaceOnUse"
       gradientTransform="matrix(1.1123781,0,0,0.6281732,-20.449922,-3.6125846)"
       r="9.7227182"
       fy="7.139607"
       fx="27.883883"
       cy="7.139607"
       cx="27.883883"
       id="radialGradient9876"
       xlink:href="#linearGradient9868"
       inkscape:collect="always" />
    <linearGradient
       gradientTransform="matrix(0.7964847,0,0,0.7951099,-17.292362,-6.5366598)"
       gradientUnits="userSpaceOnUse"
       y2="24.764584"
       x2="34.007416"
       y1="19.107729"
       x1="31.852951"
       id="linearGradient9886"
       xlink:href="#linearGradient9880"
       inkscape:collect="always" />
    <linearGradient
       gradientUnits="userSpaceOnUse"
       y2="18.064039"
       x2="33.710651"
       y1="21.511185"
       x1="31.078955"
       id="linearGradient9902"
       xlink:href="#linearGradient9896"
       inkscape:collect="always"
       gradientTransform="matrix(0.7964847,0,0,0.7951099,-16.403389,-6.5366598)" />
    <linearGradient
       inkscape:collect="always"
       xlink:href="#linearGradient6365"
       id="linearGradient6371"
       x1="40.25"
       y1="31.625"
       x2="40.25"
       y2="43.25"
       gradientUnits="userSpaceOnUse"
       gradientTransform="translate(-12.020815,0)" />
    <filter
       inkscape:collect="always"
       x="-0.14153846"
       width="1.2830769"
       y="-0.10415094"
       height="1.2083019"
       id="filter6421">
      <feGaussianBlur
         inkscape:collect="always"
         stdDeviation="2.07"
         id="feGaussianBlur6423" />
    </filter>
    <filter
       inkscape:collect="always"
       x="-0.066812895"
       width="1.1336257"
       y="-0.11952912"
       height="1.2390583"
       id="filter6451">
      <feGaussianBlur
         inkscape:collect="always"
         stdDeviation="0.76879489"
         id="feGaussianBlur6453" />
    </filter>
    <radialGradient
       inkscape:collect="always"
       xlink:href="#linearGradient8662"
       id="radialGradient6461"
       gradientUnits="userSpaceOnUse"
       gradientTransform="matrix(1,0,0,0.536723,0,16.87306)"
       cx="24.837126"
       cy="36.421127"
       fx="24.837126"
       fy="36.421127"
       r="15.644737" />
    <radialGradient
       inkscape:collect="always"
       xlink:href="#linearGradient8650"
       id="radialGradient6463"
       gradientUnits="userSpaceOnUse"
       gradientTransform="matrix(1.253442,0,0,0.9539,-15.47908,11.27663)"
       cx="19.701141"
       cy="2.8969381"
       fx="19.701141"
       fy="2.8969381"
       r="17.171415" />
    <linearGradient
       inkscape:collect="always"
       xlink:href="#linearGradient9888"
       id="linearGradient6465"
       gradientUnits="userSpaceOnUse"
       x1="8.7600641"
       y1="13.663074"
       x2="19.755548"
       y2="43.449947"
       gradientTransform="matrix(0.968718,0,0,0.9689198,0.3616813,0.7378237)" />
    <linearGradient
       inkscape:collect="always"
       xlink:href="#linearGradient6467"
       id="linearGradient6473"
       x1="18.729185"
       y1="44"
       x2="18.729185"
       y2="29.068014"
       gradientUnits="userSpaceOnUse"
       gradientTransform="matrix(0.4193549,0,0,0.4723504,1.1700193,0.216585)" />
  </defs>
  <sodipodi:namedview
     stroke="#a40000"
     fill="#727e0a"
     id="base"
     pagecolor="#ffffff"
     bordercolor="#666666"
     borderopacity="0.25490196"
     inkscape:pageopacity="0.0"
     inkscape:pageshadow="2"
     inkscape:zoom="1"
     inkscape:cx="-150.9893"
     inkscape:cy="4.0932385"
     inkscape:current-layer="layer1"
     showgrid="false"
     inkscape:grid-bbox="true"
     inkscape:document-units="px"
     inkscape:showpageshadow="false"
     inkscape:window-width="872"
     inkscape:window-height="696"
     inkscape:window-x="562"
     inkscape:window-y="135"
     width="22px"
     height="22px" />
  <metadata
     id="metadata4">
    <rdf:RDF>
      <cc:Work
         rdf:about="">
        <dc:format>image/svg+xml</dc:format>
        <dc:type
           rdf:resource="http://purl.org/dc/dcmitype/StillImage" />
        <dc:creator>
          <cc:Agent>
            <dc:title>Jakub Steiner</dc:title>
          </cc:Agent>
        </dc:creator>
        <dc:source>http://jimmac.musichall.cz</dc:source>
        <cc:license
           rdf:resource="http://creativecommons.org/licenses/publicdomain/" />
        <dc:title>System Log Out</dc:title>
        <dc:subject>
          <rdf:Bag>
            <rdf:li>log out</rdf:li>
            <rdf:li>logout</rdf:li>
            <rdf:li>exit</rdf:li>
          </rdf:Bag>
        </dc:subject>
      </cc:Work>
      <cc:License
         rdf:about="http://creativecommons.org/licenses/publicdomain/">
        <cc:permits
           rdf:resource="http://creativecommons.org/ns#Reproduction" />
        <cc:permits
           rdf:resource="http://creativecommons.org/ns#Distribution" />
        <cc:permits
           rdf:resource="http://creativecommons.org/ns#DerivativeWorks" />
      </cc:License>
    </rdf:RDF>
  </metadata>
  <g
     id="layer1"
     inkscape:label="Layer 1"
     inkscape:groupmode="layer">
    <rect
       ry="0.7071048"
       rx="0.70710522"
       y="1.5"
       x="1.5000002"
       height="19.999998"
       width="13.999999"
       id="rect9828"
       style="opacity:1;color:#000000;fill:#eeeeec;fill-opacity:1;fill-rule:evenodd;stroke:#555753;stroke-width:1.00000036;stroke-linecap:butt;stroke-linejoin:miter;marker:none;marker-start:none;marker-mid:none;marker-end:none;stroke-miterlimit:10;stroke-dasharray:none;stroke-dashoffset:0;stroke-opacity:1;visibility:visible;display:inline;overflow:visible"
       inkscape:r_cx="true"
       inkscape:r_cy="true" />
    <rect
       y="8.3603077"
       x="2"
       height="12.639692"
       width="13"
       id="rect9840"
       style="opacity:1;color:#000000;fill:url(#linearGradient6473);fill-opacity:1;fill-rule:evenodd;stroke:none;stroke-width:1;stroke-linecap:butt;stroke-linejoin:miter;marker:none;marker-start:none;marker-mid:none;marker-end:none;stroke-miterlimit:10;stroke-dasharray:none;stroke-dashoffset:0;stroke-opacity:1;visibility:visible;display:inline;overflow:visible"
       inkscape:r_cx="true"
       inkscape:r_cy="true" />
    <path
       style="opacity:0.88571429;fill:#000000;fill-opacity:1;fill-rule:evenodd;stroke:none;stroke-width:1px;stroke-linecap:butt;stroke-linejoin:miter;stroke-opacity:1;filter:url(#filter6451)"
       d="M 2.1041847,43.875 L 23.479185,35 C 23.479185,35 26.992726,32.780416 23.729185,31.5 C 20.314184,30.16016 16.729185,32 16.729185,32 L 2.1041847,43.875 z "
       id="path6425"
       sodipodi:nodetypes="cczcc"
       transform="matrix(0.5356634,0,0,0.5347389,-0.3687426,-2.6258425)" />
    <path
       sodipodi:nodetypes="ccccc"
       id="path9852"
       d="M 2.0168357,20.304573 L 2,2 L 10.645848,2.0197835 L 10.665008,15.413239 L 2.0168357,20.304573 z "
       style="opacity:1;color:#000000;fill:url(#linearGradient9864);fill-opacity:1;fill-rule:evenodd;stroke:none;stroke-width:1;stroke-linecap:butt;stroke-linejoin:miter;marker:none;marker-start:none;marker-mid:none;marker-end:none;stroke-miterlimit:10;stroke-dasharray:none;stroke-dashoffset:0;stroke-opacity:1;visibility:visible;display:inline;overflow:visible" />
    <path
       style="opacity:0.42222224;color:#000000;fill:#ffffff;fill-opacity:1;fill-rule:nonzero;stroke:none;stroke-width:3;stroke-linecap:round;stroke-linejoin:round;marker:none;marker-start:none;marker-mid:none;marker-end:none;stroke-miterlimit:4;stroke-dasharray:none;stroke-dashoffset:0;stroke-opacity:1;visibility:visible;display:block;overflow:visible"
       d="M 2,20.304573 L 10.724413,15.438282 L 2.6869977,19.430242 L 2.6869977,2 L 2.0069651,2 L 2,20.304573 z "
       id="path1360"
       inkscape:r_cx="true"
       inkscape:r_cy="true"
       sodipodi:nodetypes="cccccc" />
    <path
       style="opacity:1;color:#000000;fill:url(#radialGradient9876);fill-opacity:1;fill-rule:evenodd;stroke:none;stroke-width:1;stroke-linecap:butt;stroke-linejoin:miter;marker:none;marker-start:none;marker-mid:none;marker-end:none;stroke-miterlimit:10;stroke-dasharray:none;stroke-dashoffset:0;stroke-opacity:1;visibility:visible;display:inline;overflow:visible"
       d="M 2.0194272,20.220708 L 2,2 L 10.645206,2 L 10.567496,15.710044 L 2.0194272,20.220708 z "
       id="path9866"
       sodipodi:nodetypes="ccccc"
       inkscape:r_cx="true"
       inkscape:r_cy="true" />
    <path
       sodipodi:nodetypes="cccsscc"
       id="path9878"
       d="M 7.2068261,8.1380429 L 8.738026,10.08827 L 7.5764266,13.918445 C 7.5764266,13.918445 7.7876267,15.113179 8.4036258,14.304977 C 9.0196258,13.496774 10.77114,11.45685 10.462825,9.9652832 C 10.234024,8.8583969 9.6004254,8.3313091 9.6004254,8.3313091 L 7.2068261,8.1380429 z "
       style="opacity:1;color:#000000;fill:url(#linearGradient9886);fill-opacity:1;fill-rule:evenodd;stroke:none;stroke-width:1;stroke-linecap:butt;stroke-linejoin:miter;marker:none;marker-start:none;marker-mid:none;marker-end:none;stroke-miterlimit:10;stroke-dasharray:none;stroke-dashoffset:0;stroke-opacity:1;visibility:visible;display:inline;overflow:visible" />
    <path
       sodipodi:nodetypes="csccscs"
       id="path9862"
       d="M 8.667627,7.2595614 C 8.667627,7.2595614 10.390637,8.0560388 10.445225,8.7529807 C 10.526293,9.7879922 7.0660267,13.075105 7.0660267,13.075105 C 6.661226,13.567053 5.9924275,13.127813 6.3620272,12.653433 C 6.3620272,12.653433 9.1231237,9.3791927 8.9492259,9.1219411 C 8.7312997,8.7995584 7.3828259,8.2961686 7.3828259,8.2961686 C 6.5732268,7.6988037 7.5959823,6.4630731 8.667627,7.2595614 z "
       style="opacity:1;color:#000000;fill:url(#linearGradient9902);fill-opacity:1;fill-rule:evenodd;stroke:none;stroke-width:1;stroke-linecap:butt;stroke-linejoin:miter;marker:none;marker-start:none;marker-mid:none;marker-end:none;stroke-miterlimit:10;stroke-dasharray:none;stroke-dashoffset:0;stroke-opacity:1;visibility:visible;display:inline;overflow:visible" />
    <path
       style="opacity:0.87428571;fill:url(#linearGradient6371);fill-opacity:1;fill-rule:evenodd;stroke:none;stroke-width:1px;stroke-linecap:butt;stroke-linejoin:miter;stroke-opacity:1;filter:url(#filter6421)"
       d="M 22.229185,3.5 L 21.729185,33.25 L 3.7291847,43 L 32.979185,43.25 L 32.729185,3.5 L 22.229185,3.5 z "
       id="path6355"
       transform="matrix(0.448057,0,0,0.4725975,0.823657,0.560157)" />
    <g
       id="g6455"
       transform="matrix(-0.448057,0,0,0.4472837,22.332232,0.8485542)">
      <path
         sodipodi:nodetypes="cccccccc"
         id="path8643"
         d="M 1.7317981,17.063686 L 1.7317981,30.421631 L 8.7089012,30.421631 L 8.7089012,35.286896 L 21.887745,23.952503 L 8.6361402,12.841769 L 8.6361402,17.066934 L 1.7317981,17.063686 z "
         style="opacity:1;color:#000000;fill:#cc0000;fill-opacity:1;fill-rule:evenodd;stroke:#a40000;stroke-width:2.2337873;stroke-linecap:round;stroke-linejoin:round;marker:none;marker-start:none;marker-mid:none;marker-end:none;stroke-miterlimit:10;stroke-dasharray:none;stroke-dashoffset:0;stroke-opacity:1;visibility:visible;display:inline;overflow:visible" />
      <path
         sodipodi:nodetypes="cccccc"
         id="path8645"
         d="M 9.4308326,14.327566 L 9.7267381,18.212089 L 3.0311141,18.310895 L 2.7352086,24.630246 C 12.993114,20.802669 11.264546,27.773987 20.603834,23.94641 L 9.4308326,14.327566 z "
         style="opacity:0.5080214;color:#000000;fill:url(#radialGradient6463);fill-opacity:1;fill-rule:evenodd;stroke:none;stroke-width:1;stroke-linecap:round;stroke-linejoin:round;marker:none;marker-start:none;marker-mid:none;marker-end:none;stroke-miterlimit:10;stroke-dasharray:none;stroke-dashoffset:0;stroke-opacity:1;visibility:visible;display:inline;overflow:visible" />
      <path
         style="opacity:0.48128339;color:#000000;fill:none;fill-opacity:1;fill-rule:evenodd;stroke:url(#linearGradient6465);stroke-width:2.23378754;stroke-linecap:butt;stroke-linejoin:miter;marker:none;marker-start:none;marker-mid:none;marker-end:none;stroke-miterlimit:10;stroke-dasharray:none;stroke-dashoffset:0;stroke-opacity:1;visibility:visible;display:inline;overflow:visible"
         d="M 4.0682237,19.290112 L 4.0682237,28.200361 L 10.781972,28.200361 L 10.781972,30.774055 L 18.875578,23.941908 L 10.522155,16.802255 L 10.522155,19.292905 L 4.0682237,19.290112 z "
         id="path8658"
         sodipodi:nodetypes="cccccccc" />
    </g>
  </g>
</svg>

<svg xmlns="http://www.w3.org/2000/svg" xmlns:xlink="http://www.w3.org/1999/xlink" width="22" height="22" version="1.0"><defs><linearGradient id="i"><stop offset="0" stop-color="#babdb6"/><stop offset="1" stop-color="#babdb6" stop-opacity="0"/></linearGradient><linearGradient id="e"><stop offset="0" stop-color="#fff"/><stop offset="1" stop-color="#fff" stop-opacity="0"/></linearGradient><linearGradient id="d"><stop offset="0" stop-color="#cecece"/><stop offset="1" stop-color="#9e9e9e"/></linearGradient><linearGradient id="h"><stop offset="0" stop-color="#fff"/><stop offset="1" stop-color="#fff" stop-opacity="0"/></linearGradient><linearGradient id="c"><stop offset="0" stop-color="#525252"/><stop offset="1" stop-color="#525252" stop-opacity="0"/></linearGradient><linearGradient id="b"><stop offset="0" stop-color="#4e4e4e"/><stop offset="1" stop-color="#616161" stop-opacity="0"/></linearGradient><linearGradient id="a"><stop offset="0" stop-color="#4e4e4e"/><stop offset="1" stop-color="#ababab"/></linearGradient><linearGradient id="f"><stop offset="0"/><stop offset="1" stop-opacity="0"/></linearGradient><linearGradient id="g"><stop offset="0" stop-color="#fff"/><stop offset="1" stop-color="#fff" stop-opacity="0"/></linearGradient><linearGradient gradientUnits="userSpaceOnUse" y2="27.759" x2="18.031" y1="19.804" x1="46.846" id="l" xlink:href="#a" gradientTransform="matrix(.43354 0 0 .44765 -4.07 .633)"/><radialGradient gradientUnits="userSpaceOnUse" gradientTransform="matrix(1.11238 0 0 .62817 -20.45 -3.613)" r="9.723" fy="7.14" fx="27.884" cy="7.14" cx="27.884" id="m" xlink:href="#b"/><linearGradient gradientTransform="matrix(.79648 0 0 .79511 -17.292 -6.537)" gradientUnits="userSpaceOnUse" y2="24.765" x2="34.007" y1="19.108" x1="31.853" id="n" xlink:href="#c"/><linearGradient gradientUnits="userSpaceOnUse" y2="18.064" x2="33.711" y1="21.511" x1="31.079" id="o" xlink:href="#d" gradientTransform="matrix(.79648 0 0 .79511 -16.403 -6.537)"/><linearGradient xlink:href="#e" id="p" x1="40.25" y1="31.625" x2="40.25" y2="43.25" gradientUnits="userSpaceOnUse" gradientTransform="translate(-12.02)"/><filter x="-.142" width="1.283" y="-.104" height="1.208" id="q"><feGaussianBlur stdDeviation="2.07"/></filter><filter x="-.067" width="1.134" y="-.12" height="1.239" id="k"><feGaussianBlur stdDeviation=".769"/></filter><radialGradient xlink:href="#g" id="r" gradientUnits="userSpaceOnUse" gradientTransform="matrix(1.25344 0 0 .9539 -15.48 11.277)" cx="19.701" cy="2.897" fx="19.701" fy="2.897" r="17.171"/><linearGradient xlink:href="#h" id="s" gradientUnits="userSpaceOnUse" x1="8.76" y1="13.663" x2="19.756" y2="43.45" gradientTransform="matrix(.96872 0 0 .96892 .362 .738)"/><linearGradient xlink:href="#i" id="j" x1="18.729" y1="44" x2="18.729" y2="29.068" gradientUnits="userSpaceOnUse" gradientTransform="matrix(.41935 0 0 .47235 1.17 .217)"/></defs><rect ry=".707" rx=".707" y="1.5" x="1.5" height="20" width="14" style="marker:none" color="#000" fill="#eeeeec" fill-rule="evenodd" stroke="#555753" stroke-miterlimit="10" overflow="visible"/><path style="marker:none" color="#000" fill="url(#j)" fill-rule="evenodd" overflow="visible" d="M2 8.36h13V21H2z"/><path d="M2.104 43.875L23.48 35s3.514-2.22.25-3.5c-3.415-1.34-7 .5-7 .5L2.104 43.875z" transform="matrix(.53566 0 0 .53474 -.369 -2.626)" opacity=".886" fill-rule="evenodd" filter="url(#k)"/><path d="M2.017 20.305L2 2l8.646.02.019 13.393-8.648 4.892z" style="marker:none" color="#000" fill="url(#l)" fill-rule="evenodd" overflow="visible"/><path style="marker:none" d="M2 20.305l8.724-4.867-8.037 3.992V2h-.68L2 20.305z" opacity=".422" color="#000" fill="#fff" display="block" overflow="visible"/><path style="marker:none" d="M2.02 20.22L2 2h8.645l-.078 13.71-8.548 4.51z" color="#000" fill="url(#m)" fill-rule="evenodd" overflow="visible"/><path d="M7.207 8.138l1.531 1.95-1.162 3.83s.212 1.195.828.387 2.367-2.848 2.059-4.34C10.234 8.858 9.6 8.331 9.6 8.331l-2.393-.193z" style="marker:none" color="#000" fill="url(#n)" fill-rule="evenodd" overflow="visible"/><path d="M8.668 7.26s1.723.796 1.777 1.493c.081 1.035-3.379 4.322-3.379 4.322-.405.492-1.074.053-.704-.422 0 0 2.761-3.274 2.587-3.531-.218-.322-1.566-.826-1.566-.826-.81-.597.213-1.833 1.285-1.036z" style="marker:none" color="#000" fill="url(#o)" fill-rule="evenodd" overflow="visible"/><path d="M22.23 3.5l-.5 29.75-18 9.75 29.25.25-.25-39.75h-10.5z" transform="matrix(.44806 0 0 .4726 .824 .56)" opacity=".874" fill="url(#p)" fill-rule="evenodd" filter="url(#q)"/><g color="#000"><path d="M1.732 17.064v13.358h6.977v4.865l13.179-11.334L8.636 12.842v4.225l-6.904-.003z" style="marker:none" fill="#c00" fill-rule="evenodd" stroke="#a40000" stroke-width="2.234" stroke-linecap="round" stroke-linejoin="round" stroke-miterlimit="10" overflow="visible" transform="matrix(-.44806 0 0 .44728 22.332 .849)"/><path d="M9.43 14.328l.297 3.884-6.696.099-.296 6.32c10.258-3.828 8.53 3.143 17.869-.685L9.43 14.328z" style="marker:none" opacity=".508" fill="url(#r)" fill-rule="evenodd" overflow="visible" transform="matrix(-.44806 0 0 .44728 22.332 .849)"/><path style="marker:none" d="M4.068 19.29v8.91h6.714v2.574l8.094-6.832-8.354-7.14v2.49l-6.454-.002z" opacity=".481" fill="none" stroke="url(#s)" stroke-width="2.234" stroke-miterlimit="10" overflow="visible" transform="matrix(-.44806 0 0 .44728 22.332 .849)"/></g></svg>
